!!!OTL: Schloss in Oesterreich Der stander et Slot i Osterige,
!!!ARE: Nordeuropa, Norwegen
!!!YOR: 1, S. 272
!!    1893 gedruckt
!!!SCT: Q2024H
!!!YEM: Copyright 1995, estate of Helmut Schaffrath.
**kern
*ICvox
*Ivox
*M6/4
*k[f#c#]
*D:
{4a
=1
4.a
8a
4g
2a
4dd
=2
2dd
4ccn
4.a
8a}
{4ccn
=3
2b-
4a
2g
4fn
=4
4g
[2a
2a]}
{4dd
=5
2dd
4ccn
2a
4b-
=6
2a
4g
4.e
8fn}
{4a
=7
2ccn
4b-
4.a
8g
4fn
=8
4e
[2d
2d]}
==
!!!AGN: Ballade, Gefangenschaft, Hinrichtung, Tod, Vergeltung
!! Norwegische Fassung der Ballade.
!!!ONB: ESAC (Essen Associative Code) Database: BALLADE
!!!AMT: compound duple
!!!AIN: vox
!!!EED: Helmut Schaffrath
!!!EEV: 1.0
*-
